X: 10871
T: Drogheda Bay
R: reel
M: 4/4
K: Edorian
|:BGEF G2 BG|G2 BG FG A2|BGEF G2 ef|1 gfed Bded:|2 gfed Bdef||
|:g2 ga bgeg|f2 fg afdf|1 g2 ga bgeg|fedA Be e2:|2 g2 bg dfaf|gfed Bded||

